!!!SOCIAL_FUNCTION: unclassified songs
!!!PDT:	1929
!!!LING_GROUP: Caddoan
!!!LANG: Non-Tone
!!!REG: Oklahoma
!!!COM: Anon.
!!!OTL: Everything Will Be Right
!!!ODT: <1920//
!!!MPN: Mrs. Good Eagle
!!!MLC: Pawnee, Oklahoma, United States of America
!! Song was recorded either 1919 or 1920.
!!!AGN: monody
!!!AMT: irregular
!!!RWG: Transcribed pitches, durations, and meters are only approximate.
!! Drum not recorded
**kern
*ICvox
*Ifemale
*clefG2
*k[]
*M2/4
*MM100
=1-
[2c
=2
4c]
4c
=3
8cc
8cc
4cc
*M3/4
=4
2.g
=5
4cc
8cc
8g
4f
*M2/4
=6
12d
12d
12d
8c
8c
*M3/4
=7
2d
8d
8r
=8
4f
4f
12d
12d
12c
*M2/4
=9
4d
12c
12c
12c
*M3/4
=10
[2.c
=11
2.c_
=12
2.c_
=13
4c]
2c
*M2/4
=14
4.c
8c
*M3/4
=15
4c
2c
=16
2.g
=17
4a+
8a
8g
4f
=18
2d
12c
12c
12c
=19
2d
8d
8r
=20
4f
4f
12d
12d
12c
*M2/4
=21
12d
12d
12c
12c
12c
12c
*M3/4
=22
2.c
=23
4c
4c
12c
12c
12c
=24
2.G
=25
4G
4G
12G
12G
12G
=26
2.G
==
*-
!!!HAO:    [This is the only song] recorded by Mrs. Good Eagle who was hostess at
!!!HAO: a hand game attended by the writer.  In explanation of the song she said,
!!!HAO: "I was sick and lay with my face toward the east.  As I lay there I saw a
!!!HAO: man with his face whitened with clay, wearing a robe and leggings of
!!!HAO: buffalo hide.  He was walking toward the west and singing this song.  When
!!!HAO: I heard it I knew that I would get well."
!!!HTX: I was thinking, and I knew that everything would be right.
!!!CNT: Pawnee
!!!TXO: Pawnee
!!!OCY: United States
!!!OCL: Frances Densmore
!!!YOR: Frances Densmore, "Pawnee Music"
!!!YOR: Bulletin 93, page 111, No. 80
!!!PPR: Smithsonian Institution, Bureau of American Ethnology
!!!PPR: Government Printing Office
!!!PDT: 1926
!!!PPP: Washington, DC, United States of America
!!!YEC: Electronic Copyright 2000 David Huron
!!!YER: September 2000
!!!YEN: United States of America
!!!ENC: David Huron
!!!RDT: September 10, 2000
!!!EEV: Release 1.0
!!!AIN: vox
